modules/material-icons/icons/hourglass-alt.svg

<svg xmlns="http://www.w3.org/2000/svg" viewBox="0 0 24 24" height="24" width="24"><path d="M6 2v6h.01L6 8.01 10 12l-4 4 .01.01H6V22h12v-5.99h-.01L18 16l-4-4 4-3.99-.01-.01H18V2zm10 14.5H8l4-4zm-8-9V4h8v3.5H8z"/></svg>

<?xml version="1.0" encoding="UTF-8" standalone="no"?>
<svg
   xmlns:dc="http://purl.org/dc/elements/1.1/"
   xmlns:cc="http://creativecommons.org/ns#"
   xmlns:rdf="http://www.w3.org/1999/02/22-rdf-syntax-ns#"
   xmlns:svg="http://www.w3.org/2000/svg"
   xmlns="http://www.w3.org/2000/svg"
   version="1.1"
   id="svg2"
   viewBox="0 0 24 24"
   height="24"
   width="24">
  <metadata
     id="metadata10">
    <rdf:RDF>
      <cc:Work
         rdf:about="">
        <dc:format>image/svg+xml</dc:format>
        <dc:type
           rdf:resource="http://purl.org/dc/dcmitype/StillImage" />
        <dc:title></dc:title>
      </cc:Work>
    </rdf:RDF>
  </metadata>
  <defs
     id="defs8" />
  <path
     id="path4"
     d="M 6,2 6,8 6.01,8 6,8.01 10,12 6,16 6.01,16.01 6,16.01 6,22 l 12,0 0,-5.99 -0.01,0 L 18,16 14,12 18,8.01 17.99,8 18,8 18,2 Z m 10,14.5 -8,0 4,-4 z M 8,7.5 8,4 l 8,0 0,3.5 c -2.81293,0 -4.561869,0 -8,0 z" />
</svg>
